public/images/flags/BR.svg

<svg width="21" height="15" viewBox="0 0 21 15" fill="none" xmlns="http://www.w3.org/2000/svg">
<path d="M2 0H19C19.5304 0 20.0391 0.210714 20.4142 0.585787C20.7893 0.96086 21 1.46957 21 2V13C21 13.5304 20.7893 14.0391 20.4142 14.4142C20.0391 14.7893 19.5304 15 19 15H2C1.46957 15 0.960858 14.7893 0.585785 14.4142C0.210712 14.0391 0 13.5304 0 13V2C0 1.46957 0.210712 0.96086 0.585785 0.585787C0.960858 0.210714 1.46957 0 2 0Z" fill="#24B47E"/>
<path d="M10.999 2L19.998 8.004L10.999 14.008L2 8.004L10.999 2Z" fill="#FCD669"/>
<path d="M7.05101 6.993C7.02163 7.16053 7.00459 7.32998 7.00001 7.5C6.99663 8.16944 7.18625 8.82567 7.54616 9.39014C7.90607 9.95461 8.42101 10.4034 9.02937 10.6828C9.63773 10.9622 10.3137 11.0603 10.9764 10.9655C11.6391 10.8706 12.2604 10.5868 12.766 10.148C11.3503 8.38485 9.29638 7.25116 7.05 6.993H7.05101ZM13.574 9.14C13.8497 8.63707 13.9961 8.07352 14 7.5C14.0021 6.72602 13.7468 5.97331 13.2743 5.36032C12.8017 4.74733 12.1388 4.30887 11.3898 4.11394C10.6407 3.919 9.84811 3.97867 9.1367 4.28354C8.42529 4.58841 7.83545 5.12118 7.46001 5.798C9.83717 6.12971 12.0114 7.31816 13.574 9.14Z" fill="#43458B"/>
<path d="M7.45999 5.798C7.25165 6.16785 7.11335 6.57297 7.052 6.993C9.29767 7.25167 11.3508 8.38531 12.766 10.148C13.0957 9.86522 13.3697 9.52336 13.574 9.14C12.0114 7.31816 9.83716 6.12972 7.45999 5.798Z" fill="white"/>
</svg>

<svg width="21" height="15" fill="none" xmlns="http://www.w3.org/2000/svg"><path d="M2 0h17a2 2 0 0 1 2 2v11a2 2 0 0 1-2 2H2a2 2 0 0 1-2-2V2a2 2 0 0 1 2-2z" fill="#24B47E"/><path d="M10.999 2l8.999 6.004-8.999 6.004L2 8.004 10.999 2z" fill="#FCD669"/><path d="M7.051 6.993c-.03.168-.046.337-.051.507a3.483 3.483 0 0 0 5.766 2.648A8.588 8.588 0 0 0 7.05 6.993h.001zm6.523 2.147A3.46 3.46 0 0 0 14 7.5a3.49 3.49 0 0 0-6.54-1.702 9.848 9.848 0 0 1 6.114 3.342z" fill="#43458B"/><path d="M7.46 5.798c-.208.37-.347.775-.408 1.195a8.588 8.588 0 0 1 5.714 3.155 3.49 3.49 0 0 0 .808-1.008A9.848 9.848 0 0 0 7.46 5.798z" fill="#fff"/></svg>
